X: 31189
T: Paddy Fahey's
R: reel
M: 4/4
K: Fmajor
|:cfcB ABGF|EFGA AB B2|A3 F ABBC|ABGF ECCF|
cfcB ABGF|EFGA ABAB|cfcf cfec|1 BGEG EFFG:|2 BGEG FGAc||
effe fAcA|fege f2 dc|dggf gagf|dggf dcde|
effe fAFA|BAGF GA (3BAG|cfcf cfec|BGEG FGAc||
effe fAcA|f2 fe fedc|dggg gagf|dggf dcde|
effe fAFA|BAGF GA (3BAG|cfcf cfec|BGEG FFAB||

